X:168
T:Mrs. Boyce's Delight THO3.168
O:England;London
M:2/4
L:1/8
Z:vmp. Peter Dunk 2011.from a transcription by Fynn Titford-Mock 2006-9
B:Thompson's Compleat Collection of 200 Favourite Country Dances Vol. III.1765-72
Q:1/4=160
K:G
g2 fe|dcBA|AcBA|B2G2|g2 fe|fbag|fed^c|d2D2:|
|:BGBG|BGBG|AFAF|AFAF|BGBG|BGBG|AFDF|G2G,2:|

